img/vk.svg

<svg width="30" height="30" viewBox="0 0 30 30" fill="none" xmlns="http://www.w3.org/2000/svg">
<circle cx="15" cy="15" r="15" fill="#09E079"/>
<g clip-path="url(#clip0_9_396)">
<path fill-rule="evenodd" clip-rule="evenodd" d="M24.5417 9.95669C24.68 9.50169 24.5417 9.16669 23.8792 9.16669H21.6917C21.135 9.16669 20.8783 9.45585 20.7392 9.77502C20.7392 9.77502 19.6267 12.4384 18.0508 14.1684C17.5408 14.67 17.3092 14.8292 17.0308 14.8292C16.8917 14.8292 16.6825 14.67 16.6825 14.2142V9.95669C16.6825 9.41002 16.5292 9.16669 16.0658 9.16669H12.6258C12.2783 9.16669 12.0692 9.42002 12.0692 9.66085C12.0692 10.1784 12.8575 10.2984 12.9383 11.755V14.92C12.9383 15.6142 12.8108 15.74 12.5325 15.74C11.7908 15.74 9.98667 13.0642 8.91583 10.0025C8.70833 9.40669 8.49833 9.16669 7.93917 9.16669H5.75C5.125 9.16669 5 9.45585 5 9.77502C5 10.3434 5.74167 13.1667 8.45417 16.9009C10.2625 19.4509 12.8083 20.8334 15.1275 20.8334C16.5183 20.8334 16.69 20.5267 16.69 19.9975V18.07C16.69 17.4559 16.8217 17.3334 17.2625 17.3334C17.5875 17.3334 18.1433 17.4934 19.4417 18.7225C20.925 20.18 21.1692 20.8334 22.0042 20.8334H24.1917C24.8167 20.8334 25.13 20.5267 24.95 19.92C24.7517 19.3167 24.0433 18.4409 23.1042 17.4017C22.5942 16.81 21.8292 16.1725 21.5967 15.8534C21.2725 15.4442 21.365 15.2617 21.5967 14.8975C21.5967 14.8975 24.2633 11.2092 24.5408 9.95669H24.5417Z" fill="white"/>
</g>
<defs>
<clipPath id="clip0_9_396">
<rect width="20" height="20" fill="white" transform="translate(5 5)"/>
</clipPath>
</defs>
</svg>

<svg width="30" height="30" fill="currentColor" xmlns="http://www.w3.org/2000/svg"><circle cx="15" cy="15" r="15" fill="#currentColor"/><g clip-path="url(#a)"><path fill-rule="evenodd" clip-rule="evenodd" d="M24.542 9.957c.138-.455 0-.79-.663-.79h-2.187c-.557 0-.814.289-.953.608 0 0-1.112 2.663-2.688 4.393-.51.502-.742.661-1.02.661-.14 0-.348-.159-.348-.615V9.957c0-.547-.154-.79-.617-.79h-3.44c-.348 0-.557.253-.557.494 0 .517.788.637.87 2.094v3.165c0 .694-.128.82-.406.82-.742 0-2.546-2.676-3.617-5.738-.208-.595-.418-.835-.977-.835H5.75c-.625 0-.75.289-.75.608 0 .568.742 3.392 3.454 7.126 1.808 2.55 4.354 3.932 6.673 3.932 1.391 0 1.563-.306 1.563-.835V18.07c0-.614.132-.737.572-.737.325 0 .881.16 2.18 1.39 1.483 1.457 1.727 2.11 2.562 2.11h2.188c.625 0 .938-.306.758-.913-.198-.603-.907-1.48-1.846-2.518-.51-.592-1.275-1.23-1.507-1.549-.325-.409-.232-.591 0-.955 0 0 2.666-3.689 2.944-4.941Z" fill="#fff"/></g><defs><clipPath id="a"><path fill="#fff" transform="translate(5 5)" d="M0 0h20v20H0z"/></clipPath></defs></svg>
